X: 8
T: Wren's Nest, The
C: Frankie Gavin
Z: leprecawn
S: https://thesession.org/tunes/119#setting52423
R: jig
M: 6/8
L: 1/8
K: Edor
|:GAB ded|cAA A2c|BGE EFG|AFD AFD|
GAB ded|cAA A2c|BGE AFD|GEE E2D:|
|:EGe d2 B|cBA B2A|GAB ded|cAA BAG|
EGe d2B|cBA B2A|GAB cAB|GEE E3:|
|:B,DE GED|B,DE E2D|B,DE GAB|AFD FED|
B,DE GED|B,DE E2D|GAB cAB|1GEE FED |2GEE E3:|

